Numix/32/mimetypes/application-vnd.ms-access.svg

<?xml version="1.0" encoding="UTF-8" standalone="no"?>
<svg
   xmlns:dc="http://purl.org/dc/elements/1.1/"
   xmlns:cc="http://creativecommons.org/ns#"
   xmlns:rdf="http://www.w3.org/1999/02/22-rdf-syntax-ns#"
   xmlns:svg="http://www.w3.org/2000/svg"
   xmlns="http://www.w3.org/2000/svg"
   xmlns:sodipodi="http://sodipodi.sourceforge.net/DTD/sodipodi-0.dtd"
   xmlns:inkscape="http://www.inkscape.org/namespaces/inkscape"
   width="32"
   height="32"
   viewBox="0 0 32 32"
   id="svg2"
   version="1.1"
   inkscape:version="0.91 r13725"
   sodipodi:docname="application-vnd.ms-access.svg">
  <metadata
     id="metadata36">
    <rdf:RDF>
      <cc:Work
         rdf:about="">
        <dc:format>image/svg+xml</dc:format>
        <dc:type
           rdf:resource="http://purl.org/dc/dcmitype/StillImage" />
      </cc:Work>
    </rdf:RDF>
  </metadata>
  <defs
     id="defs34" />
  <sodipodi:namedview
     pagecolor="#ffffff"
     bordercolor="#666666"
     borderopacity="1"
     objecttolerance="10"
     gridtolerance="10"
     guidetolerance="10"
     inkscape:pageopacity="0"
     inkscape:pageshadow="2"
     inkscape:window-width="1366"
     inkscape:window-height="704"
     id="namedview32"
     showgrid="false"
     inkscape:zoom="22.627417"
     inkscape:cx="15.181264"
     inkscape:cy="3.4500082"
     inkscape:window-x="0"
     inkscape:window-y="27"
     inkscape:window-maximized="1"
     inkscape:current-layer="svg2">
    <inkscape:grid
       type="xygrid"
       id="grid3034" />
  </sodipodi:namedview>
  <path
     style="fill:#a33639;fill-opacity:1"
     d="M 5.335888,2.972e-4 C 4.648414,3.122e-4 4,0.6767882 4,1.3940315 L 4,30.606268 C 4,31.282757 4.687474,32 5.335888,32 l 21.327331,0 c 0.648414,0 1.335888,-0.717243 1.335888,-1.393732 L 28,9 19,2e-7 z"
     id="path4-1"
     inkscape:connector-curvature="0"
     sodipodi:nodetypes="ssssssccs" />
  <path
     style="fill:#000000;fill-opacity:0.19599998"
     d="m 4,24 0,6.667969 C 4,31.316407 4.6875,32 5.332031,32 l 21.335937,0 C 27.3125,32 28,31.316407 28,30.667969 L 28,24 z"
     id="path18"
     inkscape:connector-curvature="0" />
  <g
     style="fill:#ffffff"
     id="g20"
     transform="matrix(1.125,0,0,0.93772898,-2,2.8681306)">
    <path
       d="M 7.9882812 26 C 7.5430898 27.59444 7.0711425 29.267712 6.6992188 31 L 7.6367188 31 L 7.8417969 29.896484 L 9.046875 29.896484 L 9.2617188 31 L 10.228516 31 C 9.8908907 29.409405 9.4586848 27.698268 8.9667969 26 L 7.9882812 26 z M 12.607422 26 C 12.330248 26 12.074134 26.054415 11.841797 26.167969 C 11.60946 26.277859 11.409477 26.440133 11.238281 26.65625 C 11.067085 26.868704 10.935543 27.128098 10.841797 27.439453 C 10.748042 27.747145 10.699219 28.102442 10.699219 28.498047 C 10.699219 29.300245 10.85411 29.915421 11.167969 30.347656 C 11.477753 30.783553 11.930281 31 12.525391 31 C 12.78626 31 13.019025 30.966083 13.21875 30.896484 C 13.422555 30.826887 13.581011 30.750261 13.699219 30.666016 L 13.488281 29.916016 C 13.402684 29.974624 13.287363 30.029283 13.140625 30.087891 C 13.002037 30.142832 12.823454 30.171875 12.607422 30.171875 C 12.232422 30.171875 11.960088 30.025706 11.792969 29.736328 C 11.62993 29.443288 11.546875 29.02235 11.546875 28.476562 C 11.546875 28.161544 11.575581 27.898001 11.636719 27.685547 C 11.69786 27.476756 11.779301 27.308135 11.873047 27.183594 C 11.970873 27.055388 12.086702 26.963394 12.208984 26.912109 C 12.335343 26.857168 12.461192 26.828125 12.595703 26.828125 C 12.783204 26.828125 12.950917 26.857168 13.097656 26.912109 C 13.244396 26.963391 13.370585 27.028547 13.476562 27.105469 L 13.691406 26.347656 C 13.662874 26.325683 13.614046 26.295904 13.548828 26.251953 C 13.491763 26.211665 13.417965 26.1753 13.324219 26.138672 C 13.234544 26.102042 13.130096 26.070559 13.007812 26.044922 C 12.889606 26.015627 12.758237 26 12.607422 26 z M 16.255859 26 C 15.978685 26 15.722571 26.054415 15.490234 26.167969 C 15.257897 26.277859 15.057914 26.440133 14.886719 26.65625 C 14.715522 26.868704 14.585934 27.128098 14.492188 27.439453 C 14.398433 27.747145 14.349609 28.102442 14.349609 28.498047 C 14.349609 29.300245 14.504501 29.915421 14.818359 30.347656 C 15.128143 30.783553 15.580671 31 16.175781 31 C 16.436651 31 16.667462 30.966083 16.867188 30.896484 C 17.070993 30.826887 17.231402 30.750261 17.349609 30.666016 L 17.136719 29.916016 C 17.051121 29.974624 16.937754 30.029283 16.791016 30.087891 C 16.652428 30.142832 16.471892 30.171875 16.255859 30.171875 C 15.880859 30.171875 15.608526 30.025706 15.441406 29.736328 C 15.278368 29.443288 15.197266 29.02235 15.197266 28.476562 C 15.197266 28.161544 15.225972 27.898001 15.287109 27.685547 C 15.348251 27.476756 15.429691 27.308135 15.523438 27.183594 C 15.621264 27.055388 15.73514 26.963394 15.857422 26.912109 C 15.983781 26.857168 16.10963 26.828125 16.244141 26.828125 C 16.431641 26.828125 16.599354 26.857168 16.746094 26.912109 C 16.892833 26.963391 17.019022 27.028547 17.125 27.105469 L 17.341797 26.347656 C 17.313265 26.325683 17.262483 26.295904 17.197266 26.251953 C 17.140201 26.211665 17.068356 26.1753 16.974609 26.138672 C 16.884935 26.102042 16.778533 26.070559 16.65625 26.044922 C 16.538044 26.015627 16.406674 26 16.255859 26 z M 19.1875 26.091797 C 19.029297 26.091797 18.863769 26.102831 18.683594 26.117188 C 18.503418 26.131544 18.310059 26.160389 18.103516 26.207031 L 18.103516 30.789062 C 18.279297 30.828532 18.446289 30.856737 18.595703 30.871094 C 18.753906 30.892671 18.912109 30.900391 19.070312 30.900391 C 19.37793 30.900391 19.65918 30.857596 19.914062 30.771484 C 20.17334 30.681783 20.391601 30.541412 20.576172 30.347656 C 20.760742 30.15749 20.906743 29.910454 21.007812 29.605469 C 21.117671 29.296896 21.169922 28.922438 21.169922 28.488281 C 21.169922 28.064891 21.122073 27.702105 21.025391 27.404297 C 20.933106 27.1029 20.800292 26.852276 20.628906 26.662109 C 20.457519 26.464765 20.248047 26.321801 20.001953 26.228516 C 19.755859 26.138812 19.486328 26.091797 19.1875 26.091797 z M 23.167969 26.091797 C 22.970214 26.091797 22.769043 26.105747 22.5625 26.130859 C 22.360352 26.15239 22.171387 26.178327 22 26.207031 L 22 30.763672 C 22.210938 30.810321 22.421386 30.841751 22.636719 30.863281 C 22.852051 30.888394 23.058106 30.900391 23.255859 30.900391 C 23.506347 30.900391 23.739746 30.878674 23.955078 30.832031 C 24.174805 30.781799 24.359376 30.703027 24.517578 30.591797 C 24.675782 30.473391 24.804201 30.323298 24.896484 30.136719 C 24.988768 29.942963 25.037109 29.705332 25.037109 29.421875 C 25.037109 29.206591 24.979008 28.998122 24.869141 28.800781 C 24.759278 28.603437 24.55371 28.444896 24.246094 28.330078 C 24.421875 28.229613 24.561039 28.094102 24.662109 27.921875 C 24.767579 27.749648 24.826172 27.552538 24.826172 27.330078 C 24.826172 27.182967 24.803708 27.035782 24.759766 26.888672 C 24.715821 26.741562 24.632812 26.612547 24.509766 26.494141 C 24.386719 26.375735 24.219239 26.278796 24.003906 26.207031 C 23.788574 26.131682 23.510742 26.091797 23.167969 26.091797 z M 19.267578 26.90625 C 19.469727 26.90625 19.632324 26.949683 19.759766 27.042969 C 19.887207 27.129082 19.983882 27.243514 20.058594 27.390625 C 20.133304 27.537735 20.182133 27.706317 20.212891 27.896484 C 20.243648 28.09024 20.255859 28.287349 20.255859 28.488281 C 20.255859 28.721506 20.238774 28.937421 20.199219 29.134766 C 20.164062 29.324933 20.101568 29.492878 20.013672 29.632812 C 19.930176 29.776335 19.820802 29.887859 19.675781 29.966797 C 19.539552 30.049322 19.372558 30.089844 19.166016 30.089844 L 19.087891 30.089844 C 19.057122 30.089844 19.030276 30.089158 19.003906 30.082031 L 19.003906 26.927734 C 19.043459 26.91695 19.086424 26.914062 19.134766 26.914062 C 19.183104 26.906936 19.228023 26.90625 19.267578 26.90625 z M 23.308594 26.90625 C 23.392089 26.90625 23.471683 26.913387 23.550781 26.927734 C 23.629882 26.9385 23.696286 26.964437 23.757812 27.003906 C 23.814945 27.039787 23.859375 27.093936 23.894531 27.162109 C 23.929676 27.230283 23.947266 27.314553 23.947266 27.425781 C 23.947266 27.608772 23.890137 27.753685 23.771484 27.861328 C 23.652832 27.961792 23.48047 28.011719 23.251953 28.011719 L 22.900391 28.011719 L 22.900391 26.935547 C 22.95752 26.924782 23.022945 26.917626 23.097656 26.914062 C 23.167969 26.906936 23.238281 26.90625 23.308594 26.90625 z M 8.4570312 26.970703 C 8.6175346 27.633664 8.7916865 28.316819 8.8964844 29.023438 L 8.0097656 29.023438 C 8.1315395 28.350655 8.2576019 27.656405 8.4570312 26.970703 z M 22.900391 28.787109 L 23.384766 28.787109 C 23.617676 28.787109 23.801265 28.837047 23.9375 28.9375 C 24.07812 29.034378 24.152344 29.195827 24.152344 29.421875 C 24.152344 29.558222 24.126466 29.672016 24.078125 29.761719 C 24.029785 29.847832 23.963383 29.916563 23.888672 29.966797 C 23.813964 30.013447 23.727542 30.046829 23.630859 30.068359 C 23.534179 30.082763 23.433101 30.089844 23.332031 30.089844 C 23.257324 30.089844 23.182614 30.089158 23.103516 30.082031 C 23.033203 30.07844 22.961917 30.071312 22.900391 30.060547 L 22.900391 28.787109 z "
       transform="matrix(0.88888889,0,0,1.0664062,1.7777778,-3.0585923)"
       id="path22" />
  </g>
  <path
     style="fill:#000000;fill-opacity:0.19599998"
     d="m 21,9 7,7 0,-7 z"
     id="path6-4"
     inkscape:connector-curvature="0"
     sodipodi:nodetypes="cccc" />
  <path
     style="fill:#ffffff;fill-opacity:0.39200003"
     d="M 19.000305,2.972e-4 27.991899,9 20.378637,9 C 19.705686,9 19.000305,8.2865104 19.000305,7.6135598 z"
     id="path8-6"
     inkscape:connector-curvature="0"
     sodipodi:nodetypes="ccssc" />
  <g
     style="fill:#ffffff"
     id="g10"
     transform="matrix(0.93772881,0,0,0.93772881,0.9963399,-0.2564071)">
    <path
       d="m 16,12 c -2.945312,0 -5.332031,0.746094 -5.332031,1.667969 l 0,1.332031 c 0,0.921875 2.386719,1.667969 5.332031,1.667969 2.945312,0 5.332031,-0.746094 5.332031,-1.667969 l 0,-1.332031 C 21.332031,12.746094 18.945312,12 16,12 z"
       id="path12"
       inkscape:connector-curvature="0" />
    <path
       d="m 15.984375,17.332031 c -2.390625,0 -4.402344,-0.488281 -5.082031,-1.164062 -0.160156,0.15625 -0.234375,0.324219 -0.234375,0.5 l 0,1.332031 c 0,0.921875 2.386719,1.667969 5.332031,1.667969 2.945312,0 5.332031,-0.746094 5.332031,-1.667969 l 0,-1.332031 c 0,-0.175781 -0.09375,-0.34375 -0.25,-0.5 -0.679687,0.675781 -2.710937,1.164062 -5.097656,1.164062 z"
       id="path14"
       inkscape:connector-curvature="0" />
    <path
       d="m 15.984375,20.332031 c -2.390625,0 -4.402344,-0.488281 -5.082031,-1.164062 -0.160156,0.15625 -0.234375,0.324219 -0.234375,0.5 l 0,1.332031 c 0,0.921875 2.386719,1.667969 5.332031,1.667969 2.945312,0 5.332031,-0.746094 5.332031,-1.667969 l 0,-1.332031 c 0,-0.175781 -0.09375,-0.34375 -0.25,-0.5 -0.679687,0.675781 -2.710937,1.164062 -5.097656,1.164062 z"
       id="path16"
       inkscape:connector-curvature="0" />
  </g>
  <g
     transform="matrix(1.0434793,0,0,0.93772898,-0.90780893,2.8681306)"
     id="g4147"
     style="fill:#ffff00" />
  <g
     style="fill:#ffff00"
     id="g4159"
     transform="matrix(1.0434793,0,0,0.93772898,-4.5568089,2.8681306)" />
</svg>

<svg xmlns="http://www.w3.org/2000/svg" viewBox="0 0 32 32">
 <path d="m 5.336 0 c -0.687 0 -1.336 0.676 -1.336 1.394 l 0 29.21 c 0 0.676 0.687 1.394 1.336 1.394 l 21.327 0 c 0.648 0 1.336 -0.717 1.336 -1.394 l 0.001 -21.606 -9 -9 z" style="fill:#a33639;fill-opacity:1"/>
 <path d="m 4 24 0 6.668 c 0 0.648 0.688 1.332 1.332 1.332 l 21.336 0 c 0.645 0 1.332 -0.684 1.332 -1.332 l 0 -6.668 z" style="fill:#000;fill-opacity:0.196"/>
 <g transform="matrix(1.125,0,0,0.93772898,-2,2.8681306)" style="fill:#fff">
  <path d="m 7.988 26 c -0.445 1.594 -0.917 3.268 -1.289 5 l 0.938 0 l 0.205 -1.104 l 1.205 0 l 0.215 1.104 l 0.967 0 c -0.338 -1.591 -0.77 -3.302 -1.262 -5 l -0.979 0 z m 4.619 0 c -0.277 0 -0.533 0.054 -0.766 0.168 c -0.232 0.11 -0.432 0.272 -0.604 0.488 c -0.171 0.212 -0.303 0.472 -0.396 0.783 c -0.094 0.308 -0.143 0.663 -0.143 1.059 c 0 0.802 0.155 1.417 0.469 1.85 c 0.31 0.436 0.762 0.652 1.357 0.652 c 0.261 0 0.494 -0.034 0.693 -0.104 c 0.204 -0.07 0.362 -0.146 0.48 -0.23 l -0.211 -0.75 c -0.086 0.059 -0.201 0.113 -0.348 0.172 c -0.139 0.055 -0.317 0.084 -0.533 0.084 c -0.375 0 -0.647 -0.146 -0.814 -0.436 c -0.163 -0.293 -0.246 -0.714 -0.246 -1.26 c 0 -0.315 0.029 -0.579 0.09 -0.791 c 0.061 -0.209 0.143 -0.377 0.236 -0.502 c 0.098 -0.128 0.214 -0.22 0.336 -0.271 c 0.126 -0.055 0.252 -0.084 0.387 -0.084 c 0.188 0 0.355 0.029 0.502 0.084 c 0.147 0.051 0.273 0.116 0.379 0.193 l 0.215 -0.758 c -0.029 -0.022 -0.077 -0.052 -0.143 -0.096 c -0.057 -0.04 -0.131 -0.077 -0.225 -0.113 c -0.09 -0.037 -0.194 -0.068 -0.316 -0.094 c -0.118 -0.029 -0.25 -0.045 -0.4 -0.045 z m 3.648 0 c -0.277 0 -0.533 0.054 -0.766 0.168 c -0.232 0.11 -0.432 0.272 -0.604 0.488 c -0.171 0.212 -0.301 0.472 -0.395 0.783 c -0.094 0.308 -0.143 0.663 -0.143 1.059 c 0 0.802 0.155 1.417 0.469 1.85 c 0.31 0.436 0.762 0.652 1.357 0.652 c 0.261 0 0.492 -0.034 0.691 -0.104 c 0.204 -0.07 0.364 -0.146 0.482 -0.23 l -0.213 -0.75 c -0.086 0.059 -0.199 0.113 -0.346 0.172 c -0.139 0.055 -0.319 0.084 -0.535 0.084 c -0.375 0 -0.647 -0.146 -0.814 -0.436 c -0.163 -0.293 -0.244 -0.714 -0.244 -1.26 c 0 -0.315 0.029 -0.579 0.09 -0.791 c 0.061 -0.209 0.143 -0.377 0.236 -0.502 c 0.098 -0.128 0.212 -0.22 0.334 -0.271 c 0.126 -0.055 0.252 -0.084 0.387 -0.084 c 0.188 0 0.355 0.029 0.502 0.084 c 0.147 0.051 0.273 0.116 0.379 0.193 l 0.217 -0.758 c -0.029 -0.022 -0.079 -0.052 -0.145 -0.096 c -0.057 -0.04 -0.129 -0.077 -0.223 -0.113 c -0.09 -0.037 -0.196 -0.068 -0.318 -0.094 c -0.118 -0.029 -0.25 -0.045 -0.4 -0.045 z m 2.932 0.092 c -0.158 0 -0.324 0.011 -0.504 0.025 c -0.18 0.014 -0.374 0.043 -0.58 0.09 l 0 4.582 c 0.176 0.039 0.343 0.068 0.492 0.082 c 0.158 0.022 0.316 0.029 0.475 0.029 c 0.308 0 0.589 -0.043 0.844 -0.129 c 0.259 -0.09 0.478 -0.23 0.662 -0.424 c 0.185 -0.19 0.331 -0.437 0.432 -0.742 c 0.11 -0.309 0.162 -0.683 0.162 -1.117 c 0 -0.423 -0.048 -0.786 -0.145 -1.084 c -0.092 -0.301 -0.225 -0.552 -0.396 -0.742 c -0.171 -0.197 -0.381 -0.34 -0.627 -0.434 c -0.246 -0.09 -0.516 -0.137 -0.814 -0.137 z m 3.98 0 c -0.198 0 -0.399 0.014 -0.605 0.039 c -0.202 0.022 -0.391 0.047 -0.563 0.076 l 0 4.557 c 0.211 0.047 0.421 0.078 0.637 0.1 c 0.215 0.025 0.421 0.037 0.619 0.037 c 0.25 0 0.484 -0.022 0.699 -0.068 c 0.22 -0.05 0.404 -0.129 0.563 -0.24 c 0.158 -0.118 0.287 -0.268 0.379 -0.455 c 0.092 -0.194 0.141 -0.431 0.141 -0.715 c 0 -0.215 -0.058 -0.424 -0.168 -0.621 c -0.11 -0.197 -0.315 -0.356 -0.623 -0.471 c 0.176 -0.1 0.315 -0.236 0.416 -0.408 c 0.105 -0.172 0.164 -0.369 0.164 -0.592 c 0 -0.147 -0.022 -0.294 -0.066 -0.441 c -0.044 -0.147 -0.127 -0.276 -0.25 -0.395 c -0.123 -0.118 -0.291 -0.215 -0.506 -0.287 c -0.215 -0.075 -0.493 -0.115 -0.836 -0.115 z m -3.9 0.814 c 0.202 0 0.365 0.043 0.492 0.137 c 0.127 0.086 0.224 0.201 0.299 0.348 c 0.075 0.147 0.124 0.316 0.154 0.506 c 0.031 0.194 0.043 0.391 0.043 0.592 c 0 0.233 -0.017 0.449 -0.057 0.646 c -0.035 0.19 -0.098 0.358 -0.186 0.498 c -0.083 0.144 -0.193 0.255 -0.338 0.334 c -0.136 0.083 -0.303 0.123 -0.51 0.123 l -0.078 0 c -0.031 0 -0.058 -0.001 -0.084 -0.008 l 0 -3.154 c 0.04 -0.011 0.083 -0.014 0.131 -0.014 c 0.048 -0.007 0.093 -0.008 0.133 -0.008 z m 4.04 0 c 0.083 0 0.163 0.007 0.242 0.021 c 0.079 0.011 0.146 0.037 0.207 0.076 c 0.057 0.036 0.102 0.09 0.137 0.158 c 0.035 0.068 0.053 0.152 0.053 0.264 c 0 0.183 -0.057 0.328 -0.176 0.436 c -0.119 0.1 -0.291 0.15 -0.52 0.15 l -0.352 0 l 0 -1.076 c 0.057 -0.011 0.123 -0.018 0.197 -0.021 c 0.07 -0.007 0.141 -0.008 0.211 -0.008 z m -14.852 0.064 c 0.161 0.663 0.335 1.346 0.439 2.053 l -0.887 0 c 0.122 -0.673 0.248 -1.367 0.447 -2.053 z m 14.443 1.816 l 0.484 0 c 0.233 0 0.416 0.05 0.553 0.15 c 0.141 0.097 0.215 0.258 0.215 0.484 c 0 0.136 -0.026 0.25 -0.074 0.34 c -0.048 0.086 -0.115 0.155 -0.189 0.205 c -0.075 0.047 -0.161 0.08 -0.258 0.102 c -0.097 0.014 -0.198 0.021 -0.299 0.021 c -0.075 0 -0.149 -0.001 -0.229 -0.008 c -0.07 -0.004 -0.142 -0.011 -0.203 -0.021 l 0 -1.273 z" transform="matrix(0.88888889,0,0,1.0664062,1.7777778,-3.0585923)"/>
 </g>
 <path d="m 21 9 7 7 0 -7 z" style="fill:#000;fill-opacity:0.196"/>
 <path d="m 19 0 8.992 9 -7.613 0 c -0.673 0 -1.378 -0.713 -1.378 -1.386 z" style="fill:#fff;fill-opacity:0.392"/>
 <g transform="matrix(0.93772881,0,0,0.93772881,0.9963399,-0.2564071)" style="fill:#fff">
  <path d="m 16 12 c -2.945 0 -5.332 0.746 -5.332 1.668 l 0 1.332 c 0 0.922 2.387 1.668 5.332 1.668 2.945 0 5.332 -0.746 5.332 -1.668 l 0 -1.332 c 0 -0.922 -2.387 -1.668 -5.332 -1.668 z"/>
  <path d="m 15.984 17.332 c -2.391 0 -4.402 -0.488 -5.082 -1.164 -0.16 0.156 -0.234 0.324 -0.234 0.5 l 0 1.332 c 0 0.922 2.387 1.668 5.332 1.668 2.945 0 5.332 -0.746 5.332 -1.668 l 0 -1.332 c 0 -0.176 -0.094 -0.344 -0.25 -0.5 -0.68 0.676 -2.711 1.164 -5.098 1.164 z"/>
  <path d="m 15.984 20.332 c -2.391 0 -4.402 -0.488 -5.082 -1.164 -0.16 0.156 -0.234 0.324 -0.234 0.5 l 0 1.332 c 0 0.922 2.387 1.668 5.332 1.668 2.945 0 5.332 -0.746 5.332 -1.668 l 0 -1.332 c 0 -0.176 -0.094 -0.344 -0.25 -0.5 -0.68 0.676 -2.711 1.164 -5.098 1.164 z"/>
 </g>
</svg>
